desafios/travelgram/assets/icons/AirplaneTilt.svg

<svg fill="none" height="24" viewBox="0 0 24 24" width="24" xmlns="http://www.w3.org/2000/svg"><g fill="#ef5f4c"><path d="m19.5938 7.59375-3.0938 2.90625 3 8.25-2.25 2.25-4.5-6.75-2.25 2.25v2.25l-2.25 2.25-1.5-3.75-3.75-1.5 2.25-2.25h2.25l2.25-2.25-6.75-4.5 2.25-2.25 8.25 3 2.9062-3.09375c.4227-.42269.996-.66016 1.5938-.66016s1.1711.23747 1.5938.66016c.4226.42269.6601.99597.6601 1.59375 0 .59777-.2375 1.17106-.6601 1.59375z" opacity=".2"/><path d="m17.3747 10.7072 2.7319-2.57152.0159-.015c.5627-.56267.8788-1.32582.8788-2.12156s-.3161-1.55889-.8788-2.12156-1.3258-.87878-2.1216-.87878c-.7957 0-1.5588.31611-2.1215.87878l-.015.01594-2.5716 2.73187-7.78123-2.83125c-.13411-.04878-.27936-.05828-.41868-.02739-.13933.03088-.26695.10088-.36788.20177l-2.25 2.25c-.07841.07846-.13843.17334-.17575.2778-.03731.10446-.051.2159-.04006.32628.01094.11039.04623.21697.10333.31207.05709.0951.13457.17636.22685.23791l5.98969 3.99284-1.38938 1.3847h-1.93968c-.19865.0001-.38915.0789-.52969.2193l-2.25 2.25c-.08775.0876-.15244.1955-.18828.3141-.03584.1187-.04172.2444-.01711.3658.02462.1215.07895.235.15814.3303.0792.0954.18079.1696.29569.2161l3.45187 1.3809 1.37813 3.4453.00562.015c.04768.1154.12341.2171.22033.2958.09693.0788.21197.132.3347.155s.24926.015.36811-.0233c.11885-.0382.22626-.1056.31249-.1959l2.23779-2.2388c.07-.0693.1257-.1518.1638-.2427.0382-.0909.058-.1884.0584-.2869v-1.9397l1.3838-1.3838 3.9928 5.9897c.0615.0923.1428.1698.2379.2269s.2017.0923.312.1033c.1104.0109.2219-.0028.3263-.0401.1045-.0373.1994-.0973.2778-.1757l2.25-2.25c.1009-.1009.1709-.2286.2018-.3679s.0214-.2846-.0274-.4187zm-.0066 9.1154-3.9928-5.9897c-.0613-.0928-.1425-.1709-.2377-.2284-.0951-.0576-.2019-.0932-.3126-.1044-.0247-.0014-.0494-.0014-.0741 0-.0985-.0001-.196.0192-.2871.0569-.091.0376-.1738.0928-.2435.1624l-2.24998 2.25c-.0698.0697-.12518.1524-.16298.2434-.03781.0911-.05729.1887-.05733.2873v1.9396l-1.22532 1.2254-1.07812-2.6963c-.03772-.0936-.09395-.1786-.16531-.25s-.1564-.1276-.25-.1653l-2.69438-1.0781 1.22438-1.2253h1.93875c.09852 0 .19609-.0193.28713-.0569.09105-.0377.17379-.0929.24349-.1625l2.24997-2.25c.0786-.0785.1388-.1734.1762-.278.0374-.1045.0511-.2161.0402-.3266s-.0463-.2172-.1035-.3124-.1348-.1765-.2272-.238l-5.98879-3.99377 1.26562-1.26468 7.80187 2.83687c.1375.05051.2867.05967.4293.02635s.2724-.10766.3732-.21385l2.9006-3.0825c.2849-.2609.6594-.40185 1.0456-.39352.3861.00834.7542.16534 1.0275.43829.2734.27295.4308.64082.4397 1.02699.0088.38617-.1316.76086-.3921 1.04605l-3.0816 2.90063c-.1062.10084-.1805.23054-.2139.37314-.0333.1427-.0241.2919.0264.4294l2.8369 7.8018z"/></g></svg>

<svg width="24" height="24" viewBox="0 0 24 24" fill="none" xmlns="http://www.w3.org/2000/svg">
<path opacity="0.2" d="M19.5938 7.59375L16.5 10.5L19.5 18.75L17.25 21L12.75 14.25L10.5 16.5V18.75L8.25 21L6.75 17.25L3 15.75L5.25 13.5H7.5L9.75 11.25L3 6.75L5.25 4.5L13.5 7.5L16.4062 4.40625C16.8289 3.98356 17.4022 3.74609 18 3.74609C18.5978 3.74609 19.1711 3.98356 19.5938 4.40625C20.0164 4.82894 20.2539 5.40222 20.2539 6C20.2539 6.59777 20.0164 7.17106 19.5938 7.59375Z" fill="#EF5F4C"/>
<path d="M17.3747 10.7072L20.1066 8.13568L20.1225 8.12068C20.6852 7.55801 21.0013 6.79486 21.0013 5.99912C21.0013 5.20338 20.6852 4.44023 20.1225 3.87756C19.5598 3.31489 18.7967 2.99878 18.0009 2.99878C17.2052 2.99878 16.4421 3.31489 15.8794 3.87756L15.8644 3.8935L13.2928 6.62537L5.51157 3.79412C5.37746 3.74534 5.23221 3.73584 5.09289 3.76673C4.95356 3.79761 4.82594 3.86761 4.72501 3.9685L2.47501 6.2185C2.3966 6.29696 2.33658 6.39184 2.29926 6.4963C2.26195 6.60076 2.24826 6.7122 2.2592 6.82258C2.27014 6.93297 2.30543 7.03955 2.36253 7.13465C2.41962 7.22975 2.4971 7.31101 2.58938 7.37256L8.57907 11.3654L7.18969 12.7501H5.25001C5.05136 12.7502 4.86086 12.829 4.72032 12.9694L2.47032 15.2194C2.38257 15.307 2.31788 15.4149 2.28204 15.5335C2.2462 15.6522 2.24032 15.7779 2.26493 15.8993C2.28955 16.0208 2.34388 16.1343 2.42307 16.2296C2.50227 16.325 2.60386 16.3992 2.71876 16.4457L6.17063 17.8266L7.54876 21.2719L7.55438 21.2869C7.60206 21.4023 7.67779 21.504 7.77471 21.5827C7.87164 21.6615 7.98668 21.7147 8.10941 21.7377C8.23214 21.7607 8.35867 21.7527 8.47752 21.7144C8.59637 21.6762 8.70378 21.6088 8.79001 21.5185L11.0278 19.2797C11.0978 19.2104 11.1535 19.1279 11.1916 19.037C11.2298 18.9461 11.2496 18.8486 11.25 18.7501V16.8104L12.6338 15.4266L16.6266 21.4163C16.6881 21.5086 16.7694 21.5861 16.8645 21.6432C16.9596 21.7003 17.0662 21.7355 17.1765 21.7465C17.2869 21.7574 17.3984 21.7437 17.5028 21.7064C17.6073 21.6691 17.7022 21.6091 17.7806 21.5307L20.0306 19.2807C20.1315 19.1798 20.2015 19.0521 20.2324 18.9128C20.2633 18.7735 20.2538 18.6282 20.205 18.4941L17.3747 10.7072ZM17.3681 19.8226L13.3753 13.8329C13.314 13.7401 13.2328 13.662 13.1376 13.6045C13.0425 13.5469 12.9357 13.5113 12.825 13.5001C12.8003 13.4987 12.7756 13.4987 12.7509 13.5001C12.6524 13.5 12.5549 13.5193 12.4638 13.557C12.3728 13.5946 12.29 13.6498 12.2203 13.7194L9.97032 15.9694C9.90052 16.0391 9.84514 16.1218 9.80734 16.2128C9.76953 16.3039 9.75005 16.4015 9.75001 16.5001V18.4397L8.52469 19.6651L7.44657 16.9688C7.40885 16.8752 7.35262 16.7902 7.28126 16.7188C7.2099 16.6474 7.12486 16.5912 7.03126 16.5535L4.33688 15.4754L5.56126 14.2501H7.50001C7.59853 14.2501 7.6961 14.2308 7.78714 14.1932C7.87819 14.1555 7.96093 14.1003 8.03063 14.0307L10.2806 11.7807C10.3592 11.7022 10.4194 11.6073 10.4568 11.5027C10.4942 11.3982 10.5079 11.2866 10.497 11.1761C10.4861 11.0656 10.4507 10.9589 10.3935 10.8637C10.3363 10.7685 10.2587 10.6872 10.1663 10.6257L4.17751 6.63193L5.44313 5.36725L13.245 8.20412C13.3825 8.25463 13.5317 8.26379 13.6743 8.23047C13.8169 8.19715 13.9467 8.12281 14.0475 8.01662L16.9481 4.93412C17.233 4.67322 17.6075 4.53227 17.9937 4.5406C18.3798 4.54894 18.7479 4.70594 19.0212 4.97889C19.2946 5.25184 19.452 5.61971 19.4609 6.00588C19.4697 6.39205 19.3293 6.76674 19.0688 7.05193L15.9872 9.95256C15.881 10.0534 15.8067 10.1831 15.7733 10.3257C15.74 10.4684 15.7492 10.6176 15.7997 10.7551L18.6366 18.5569L17.3681 19.8226Z" fill="#EF5F4C"/>
</svg>
